src/Pure/16/symbolic/actions/edit-cut-symbolic.svg

<?xml version="1.0" encoding="UTF-8" standalone="no"?>
<svg
   width="16"
   height="16"
   enable-background="new"
   version="1.1"
   id="svg1"
   sodipodi:docname="edit-cut-symbolic.svg"
   inkscape:version="1.4.2 (ebf0e940d0, 2025-05-08)"
   xmlns:inkscape="http://www.inkscape.org/namespaces/inkscape"
   xmlns:sodipodi="http://sodipodi.sourceforge.net/DTD/sodipodi-0.dtd"
   xmlns="http://www.w3.org/2000/svg"
   xmlns:svg="http://www.w3.org/2000/svg">
  <defs
   id="defs1">
   <style
    id="current-color-scheme"
    type="text/css">
    .ColorScheme-Text { color:#363636; }
   </style>
  </defs>
  <sodipodi:namedview
     id="namedview1"
     pagecolor="#ffffff"
     bordercolor="#000000"
     borderopacity="0.25"
     inkscape:showpageshadow="2"
     inkscape:pageopacity="0.0"
     inkscape:pagecheckerboard="0"
     inkscape:deskcolor="#d1d1d1"
     inkscape:zoom="49.6875"
     inkscape:cx="8"
     inkscape:cy="8"
     inkscape:window-width="1920"
     inkscape:window-height="1010"
     inkscape:window-x="0"
     inkscape:window-y="0"
     inkscape:window-maximized="1"
     inkscape:current-layer="svg1" />
  <path
     id="path1"
     style="fill:currentColor"
     class="ColorScheme-Text"
     d="M 3.5078125 0 C 3.4115233 -0.0017528906 3.3153619 0.023681875 3.2285156 0.080078125 C 2.9969256 0.23047813 2.9296881 0.53989437 3.0800781 0.77148438 L 7.4042969 7.4296875 L 5.4804688 10.390625 C 5.0435488 10.142125 4.53857 10 4 10 C 2.3432 10 1 11.3431 1 13 C 1 14.6569 2.3432 16 4 16 C 5.6568 16 7 14.6569 7 13 C 7 12.2446 6.7206356 11.554744 6.2597656 11.027344 L 8 8.3476562 L 9.7402344 11.027344 C 9.2793344 11.554744 9 12.2446 9 13 C 9 14.6569 10.3431 16 12 16 C 13.6569 16 15 14.6569 15 13 C 15 11.3431 13.6569 10 12 10 C 11.4614 10 10.956431 10.142125 10.519531 10.390625 L 3.9199219 0.22851562 C 3.8259281 0.083771875 3.6682945 0.0029214844 3.5078125 0 z M 12.492188 0 C 12.331693 0.0029214844 12.174078 0.08181875 12.080078 0.2265625 L 8.5957031 5.59375 L 9.1933594 6.5117188 L 12.919922 0.77148438 C 13.070322 0.53989437 13.003084 0.23047813 12.771484 0.080078125 C 12.684634 0.023681875 12.588484 -0.0017528906 12.492188 0 z M 4 11 C 5.10457 11 6 11.8954 6 13 C 6 14.1046 5.10457 15 4 15 C 2.89543 15 2 14.1046 2 13 C 2 11.8954 2.89543 11 4 11 z M 12 11 C 13.1046 11 14 11.8954 14 13 C 14 14.1046 13.1046 15 12 15 C 10.8954 15 10 14.1046 10 13 C 10 11.8954 10.8954 11 12 11 z " />
</svg>

<svg width="16" height="16" enable-background="new" version="1.1" xmlns="http://www.w3.org/2000/svg">
 <path d="m3.9194 0.22774c-0.15039-0.23159-0.46006-0.29741-0.69165-0.14702-0.23159 0.1504-0.29741 0.46007-0.14702 0.69166l4.3231 6.657-1.9229 2.961c-0.43692-0.2485-0.94233-0.3904-1.4809-0.3904-1.6568 0-3 1.3431-3 3s1.3432 3 3 3 3-1.3431 3-3c0-0.7554-0.27922-1.4457-0.74009-1.9731l1.7401-2.6795 1.7401 2.6795c-0.4609 0.5274-0.7401 1.2177-0.7401 1.9731 0 1.6569 1.3431 3 3 3s3-1.3431 3-3-1.3431-3-3-3c-0.5386 0-1.044 0.1419-1.4809 0.3904zm8.0806 14.772c-1.1046 0-2-0.8954-2-2s0.8954-2 2-2 2 0.8954 2 2-0.8954 2-2 2zm-10-2c0-1.1046 0.89543-2 2-2s2 0.8954 2 2-0.89543 2-2 2-2-0.8954-2-2zm7.1924-6.4887-0.5962-0.91804 3.4844-5.3656c0.1504-0.23159 0.4601-0.29741 0.6917-0.14702 0.2316 0.1504 0.2974 0.46007 0.147 0.69166z" fill="#363636"/>
</svg>
